assets/images/ic_cost.svg

<svg width="19" height="19" viewBox="0 0 19 19" fill="none" xmlns="http://www.w3.org/2000/svg">
<path d="M9.5 0C6.98044 0 4.56408 1.00089 2.78249 2.78249C1.00089 4.56408 0 6.98044 0 9.5C0 12.0196 1.00089 14.4359 2.78249 16.2175C4.56408 17.9991 6.98044 19 9.5 19C12.0196 19 14.4359 17.9991 16.2175 16.2175C17.9991 14.4359 19 12.0196 19 9.5C19 6.98044 17.9991 4.56408 16.2175 2.78249C14.4359 1.00089 12.0196 0 9.5 0ZM9.5 17.1C7.48435 17.1 5.55126 16.2993 4.12599 14.874C2.70071 13.4487 1.9 11.5156 1.9 9.5C1.9 7.48435 2.70071 5.55127 4.12599 4.12599C5.55126 2.70071 7.48435 1.9 9.5 1.9C11.5156 1.9 13.4487 2.70071 14.874 4.12599C16.2993 5.55127 17.1 7.48435 17.1 9.5C17.1 11.5156 16.2993 13.4487 14.874 14.874C13.4487 16.2993 11.5156 17.1 9.5 17.1Z" fill="#C4C4C4"/>
<path d="M12.2909 10.0076C12.476 10.0076 12.6534 9.94187 12.7843 9.82484C12.9151 9.70781 12.9887 9.54908 12.9887 9.38357C12.9887 9.21806 12.9151 9.05933 12.7843 8.9423C12.6534 8.82527 12.476 8.75952 12.2909 8.75952H10.8034L12.8714 5.985C12.9254 5.9169 12.9636 5.83979 12.9837 5.75825C13.0037 5.67671 13.0053 5.5924 12.9883 5.51031C12.9713 5.42822 12.936 5.35001 12.8846 5.28033C12.8332 5.21064 12.7667 5.15089 12.689 5.10462C12.6113 5.05834 12.524 5.02648 12.4323 5.01093C12.3406 4.99537 12.2463 4.99643 12.155 5.01405C12.0638 5.03167 11.9774 5.06549 11.901 5.1135C11.8247 5.16151 11.7599 5.22274 11.7104 5.29356L9.5 8.25903L7.28959 5.29356C7.24015 5.22274 7.17532 5.16151 7.09895 5.1135C7.02258 5.06549 6.93621 5.03167 6.84497 5.01405C6.75372 4.99643 6.65944 4.99537 6.56773 5.01093C6.47601 5.02648 6.38872 5.05834 6.31102 5.10462C6.23332 5.15089 6.16679 5.21064 6.11538 5.28033C6.06396 5.35001 6.0287 5.42822 6.01169 5.51031C5.99467 5.5924 5.99625 5.67671 6.01633 5.75825C6.0364 5.83979 6.07457 5.9169 6.12856 5.985L8.19664 8.75952H6.70907C6.52402 8.75952 6.34655 8.82527 6.2157 8.9423C6.08485 9.05933 6.01134 9.21806 6.01134 9.38357C6.01134 9.54908 6.08485 9.70781 6.2157 9.82484C6.34655 9.94187 6.52402 10.0076 6.70907 10.0076H8.80227V11.2557H6.70907C6.52402 11.2557 6.34655 11.3215 6.2157 11.4385C6.08485 11.5555 6.01134 11.7143 6.01134 11.8798C6.01134 12.0453 6.08485 12.204 6.2157 12.321C6.34655 12.4381 6.52402 12.5038 6.70907 12.5038H8.80227V14.376C8.80227 14.5415 8.87578 14.7002 9.00663 14.8172C9.13748 14.9343 9.31495 15 9.5 15C9.68505 15 9.86252 14.9343 9.99337 14.8172C10.1242 14.7002 10.1977 14.5415 10.1977 14.376V12.5038H12.2909C12.476 12.5038 12.6534 12.4381 12.7843 12.321C12.9151 12.204 12.9887 12.0453 12.9887 11.8798C12.9887 11.7143 12.9151 11.5555 12.7843 11.4385C12.6534 11.3215 12.476 11.2557 12.2909 11.2557H10.1977V10.0076H12.2909Z" fill="#C4C4C4"/>
</svg>

<?xml version="1.0" encoding="utf-8"?>
<!-- Generator: Adobe Illustrator 23.0.1, SVG Export Plug-In . SVG Version: 6.00 Build 0)  -->
<svg version="1.1" id="Layer_1" xmlns="http://www.w3.org/2000/svg" xmlns:xlink="http://www.w3.org/1999/xlink" x="0px" y="0px"
	 viewBox="0 0 19 19" style="enable-background:new 0 0 19 19;" xml:space="preserve">
<style type="text/css">
	.st0{fill:#3E4958;}
</style>
<path class="st0" d="M9.5,0C7,0,4.6,1,2.8,2.8C1,4.6,0,7,0,9.5c0,2.5,1,4.9,2.8,6.7C4.6,18,7,19,9.5,19c2.5,0,4.9-1,6.7-2.8
	C18,14.4,19,12,19,9.5c0-2.5-1-4.9-2.8-6.7C14.4,1,12,0,9.5,0z M9.5,17.1c-2,0-3.9-0.8-5.4-2.2c-1.4-1.4-2.2-3.4-2.2-5.4
	c0-2,0.8-3.9,2.2-5.4c1.4-1.4,3.4-2.2,5.4-2.2c2,0,3.9,0.8,5.4,2.2s2.2,3.4,2.2,5.4c0,2-0.8,3.9-2.2,5.4S11.5,17.1,9.5,17.1z"/>
<path class="st0" d="M12.3,10c0.2,0,0.4-0.1,0.5-0.2C12.9,9.7,13,9.5,13,9.4s-0.1-0.3-0.2-0.4c-0.1-0.1-0.3-0.2-0.5-0.2h-1.5L12.9,6
	C12.9,5.9,13,5.8,13,5.8c0-0.1,0-0.2,0-0.2c0-0.1-0.1-0.2-0.1-0.2c-0.1-0.1-0.1-0.1-0.2-0.2c-0.1,0-0.2-0.1-0.3-0.1
	c-0.1,0-0.2,0-0.3,0c-0.1,0-0.2,0.1-0.3,0.1c-0.1,0-0.1,0.1-0.2,0.2l-2.2,3l-2.2-3c0-0.1-0.1-0.1-0.2-0.2C7,5.1,6.9,5,6.8,5
	C6.8,5,6.7,5,6.6,5c-0.1,0-0.2,0-0.3,0.1c-0.1,0-0.1,0.1-0.2,0.2C6.1,5.4,6,5.4,6,5.5c0,0.1,0,0.2,0,0.2C6,5.8,6.1,5.9,6.1,6
	l2.1,2.8H6.7c-0.2,0-0.4,0.1-0.5,0.2C6.1,9.1,6,9.2,6,9.4s0.1,0.3,0.2,0.4C6.3,9.9,6.5,10,6.7,10h2.1v1.2H6.7
	c-0.2,0-0.4,0.1-0.5,0.2C6.1,11.6,6,11.7,6,11.9s0.1,0.3,0.2,0.4c0.1,0.1,0.3,0.2,0.5,0.2h2.1v1.9c0,0.2,0.1,0.3,0.2,0.4
	C9.1,14.9,9.3,15,9.5,15s0.4-0.1,0.5-0.2c0.1-0.1,0.2-0.3,0.2-0.4v-1.9h2.1c0.2,0,0.4-0.1,0.5-0.2c0.1-0.1,0.2-0.3,0.2-0.4
	s-0.1-0.3-0.2-0.4c-0.1-0.1-0.3-0.2-0.5-0.2h-2.1V10H12.3z"/>
</svg>
